Origami/22x22/apps/tortoisehg.svg

<svg width="22" height="22" version="1" xmlns="http://www.w3.org/2000/svg">
 <path d="m11.5 0.9999998c-1.6619998 0-3.4995268 1.338-3.4995268 3v3.0449219l-1.4316406-1.4316407c-0.4091697-0.4091696-0.942574-0.6132812-1.4765625-0.6132812-0.5339886 0-1.0693459 0.2041116-1.4785157 0.6132812-0.8183392 0.8183393-0.8183392 2.1367389 0 2.9550782l4.4316407 4.4316408-4.4316407 4.431641c-0.8183392 0.818338-0.8183392 2.136739 0 2.955078 0.8183393 0.818339 2.136739 0.818339 2.9550782 0l4.4316404-4.431641 5.431269 4.431641c0.896686 0.73165 2.136738 0.818339 2.955078 0 0.818338-0.818339 0.818338-2.13674 0-2.955078l-4.43164-4.431641 4.43164-4.4316408c0.818339-0.8183386 0.818338-2.1367389 0-2.9550782-0.81834-0.8183391-2.136739-0.8183385-2.955078 0l-1.43164 1.4316407v-3.0449219c0-1.662-1.838102-3-3.500102-3z" style="fill:#2d5a37"/>
 <path d="m11.5 1c-1.6619998 0-3.5 1.338-3.5 3v0.5c0-1.662 1.8380002-3 3.5-3 1.662 0 3.5 1.338 3.5 3v-0.5c0-1.662-1.838-3-3.5-3zm-6.4082031 4c-0.5339886 0-1.0693458 0.2041116-1.4785157 0.6132812-0.4730646 0.4730648-0.6617634 1.1124852-0.5878906 1.7265626 0.0541306-0.4477672 0.2429265-0.8815983 0.5878906-1.2265626 0.4091699-0.4091696 0.9445271-0.6132812 1.4785157-0.6132812 0.5339885 0 1.0673928 0.2041116 1.4765625 0.6132812l1.4316406 1.4316407v-0.5l-1.4316406-1.4316407c-0.4091697-0.4091695-0.942574-0.6132812-1.4765625-0.6132812zm12.818359 0c-0.534184 1e-7 -1.069346 0.204112-1.478515 0.6132812l-1.431641 1.4316407v0.5l1.431641-1.4316407c0.818339-0.8183385 2.136738-0.8183391 2.955078 0 0.344982 0.3449826 0.535725 0.77877 0.589843 1.2265626 0.073604-0.6138338-0.116984-1.2537029-0.589843-1.7265626-0.40917-0.4091695-0.942378-0.6132813-1.476563-0.6132812zm-10.115234 8.25l-4.1816407 4.181641c-0.4730646 0.473064-0.6617634 1.112485-0.5878906 1.726562 0.0541306-0.447767 0.2429265-0.881599 0.5878906-1.226562l4.4316407-4.431641-0.25-0.25zm7.4101561 0l-0.25 0.25 4.431641 4.431641c0.344982 0.344982 0.535726 0.77877 0.589843 1.226562 0.073849-0.614056-0.116798-1.253517-0.589843-1.726562l-4.181641-4.181641z" style="fill:#ffffff;opacity:.1"/>
 <rect transform="matrix(0,-1,-1,0,0,0)" x="-21.5" y="-19" width="16" height="15" rx="8" ry="7.5" style="opacity:.2"/>
 <rect transform="matrix(0,-1,-1,0,0,0)" x="-21" y="-19" width="16" height="15" rx="8" ry="7.5" style="fill:#6d7481"/>
 <path d="m6.0082857 8.9919218v8.0000002h1v-3.5h2.9999993v3.5h1v-8.0000002h-1v3.5000002h-2.9999993v-3.5000002h-1zm8.4921873 2.5078122c-1.380712 0-2.5 1.119288-2.5 2.5s1.119288 2.5 2.5 2.5c0.426764-3.56e-4 0.846332-0.109955 1.21875-0.318359-0.07312 0.208377-0.15881 0.399903-0.275391 0.552734-0.372037 0.487723-1.017138 0.811766-2.427734 0.765625l-0.03125 1c1.589404 0.05199 2.653725-0.373347 3.253906-1.160156 0.600182-0.786809 0.704671-1.796533 0.730469-2.828125h-0.02539c0.03644-0.168169 0.05542-0.339651 0.05664-0.511719 0-1.380712-1.119288-2.5-2.5-2.5zm0 1c0.828427 0 1.5 0.671573 1.5 1.5s-0.671573 1.5-1.5 1.5-1.5-0.671573-1.5-1.5 0.671573-1.5 1.5-1.5z" style="opacity:.2"/>
 <path d="m6.0082857 8.4921873v8.0000007h1v-3.5h2.9999993v3.5h1v-8.0000007h-1v3.5000007h-2.9999993v-3.5000007h-1zm8.4921873 2.5078127c-1.380712 0-2.5 1.119288-2.5 2.5s1.119288 2.5 2.5 2.5c0.426764-3.56e-4 0.846332-0.109955 1.21875-0.318359-0.07312 0.208377-0.15881 0.399903-0.275391 0.552734-0.372037 0.487723-1.017138 0.811766-2.427734 0.765625l-0.03125 1c1.589404 0.05199 2.653725-0.373347 3.253906-1.160156 0.600182-0.786809 0.704671-1.796533 0.730469-2.828125h-0.02539c0.03644-0.168169 0.05542-0.339651 0.05664-0.511719 0-1.380712-1.119288-2.5-2.5-2.5zm0 1c0.828427 0 1.5 0.671573 1.5 1.5s-0.671573 1.5-1.5 1.5-1.5-0.671573-1.5-1.5 0.671573-1.5 1.5-1.5z" style="fill:#c4c4c4"/>
</svg>

<svg xmlns="http://www.w3.org/2000/svg" width="22" height="22" version="1">
 <path style="fill:#2d5a37" d="m 11.5,0.9999998 c -1.6619998,0 -3.4995268,1.338 -3.4995268,3 l 0,3.0449219 L 6.5688326,5.613281 C 6.1596629,5.2041114 5.6262586,4.9999998 5.0922701,4.9999998 c -0.5339886,0 -1.0693459,0.2041116 -1.4785157,0.6132812 -0.8183392,0.8183393 -0.8183392,2.1367389 0,2.9550782 L 8.0453951,13 3.6137544,17.431641 c -0.8183392,0.818338 -0.8183392,2.136739 0,2.955078 0.8183393,0.818339 2.136739,0.818339 2.9550782,0 l 4.4316404,-4.431641 5.431269,4.431641 c 0.896686,0.73165 2.136738,0.818339 2.955078,0 0.818338,-0.818339 0.818338,-2.13674 0,-2.955078 L 14.95518,13 19.38682,8.5683592 c 0.818339,-0.8183386 0.818338,-2.1367389 0,-2.9550782 -0.81834,-0.8183391 -2.136739,-0.8183385 -2.955078,0 l -1.43164,1.4316407 0,-3.0449219 c 0,-1.662 -1.838102,-3 -3.500102,-3 z"/>
 <path style="opacity:0.1;fill:#ffffff" d="M 11.5 1 C 9.8380002 1 8 2.338 8 4 L 8 4.5 C 8 2.838 9.8380002 1.5 11.5 1.5 C 13.162 1.5 15 2.838 15 4.5 L 15 4 C 15 2.338 13.162 1 11.5 1 z M 5.0917969 5 C 4.5578083 5 4.0224511 5.2041116 3.6132812 5.6132812 C 3.1402166 6.086346 2.9515178 6.7257664 3.0253906 7.3398438 C 3.0795212 6.8920766 3.2683171 6.4582455 3.6132812 6.1132812 C 4.0224511 5.7041116 4.5578083 5.5 5.0917969 5.5 C 5.6257854 5.5 6.1591897 5.7041116 6.5683594 6.1132812 L 8 7.5449219 L 8 7.0449219 L 6.5683594 5.6132812 C 6.1591897 5.2041117 5.6257854 5 5.0917969 5 z M 17.910156 5 C 17.375972 5.0000001 16.84081 5.204112 16.431641 5.6132812 L 15 7.0449219 L 15 7.5449219 L 16.431641 6.1132812 C 17.24998 5.2949427 18.568379 5.2949421 19.386719 6.1132812 C 19.731701 6.4582638 19.922444 6.8920512 19.976562 7.3398438 C 20.050166 6.72601 19.859578 6.0861409 19.386719 5.6132812 C 18.977549 5.2041117 18.444341 4.9999999 17.910156 5 z M 7.7949219 13.25 L 3.6132812 17.431641 C 3.1402166 17.904705 2.9515178 18.544126 3.0253906 19.158203 C 3.0795212 18.710436 3.2683171 18.276604 3.6132812 17.931641 L 8.0449219 13.5 L 7.7949219 13.25 z M 15.205078 13.25 L 14.955078 13.5 L 19.386719 17.931641 C 19.731701 18.276623 19.922445 18.710411 19.976562 19.158203 C 20.050411 18.544147 19.859764 17.904686 19.386719 17.431641 L 15.205078 13.25 z"/>
 <rect style="opacity:0.2" width="16" height="15" x="-21.5" y="-19" rx="8" ry="7.5" transform="matrix(0,-1,-1,0,0,0)"/>
 <rect style="fill:#6d7481" width="16" height="15" x="-21" y="-19" rx="8" ry="7.5" transform="matrix(0,-1,-1,0,0,0)"/>
 <path style="opacity:0.2" d="m 6.0082857,8.9919218 0,8.0000002 1,0 0,-3.5 2.9999993,0 0,3.5 1,0 0,-8.0000002 -1,0 0,3.5000002 -2.9999993,0 0,-3.5000002 c -1,0 0,0 -1,0 z m 8.4921873,2.5078122 c -1.380712,0 -2.5,1.119288 -2.5,2.5 0,1.380712 1.119288,2.5 2.5,2.5 0.426764,-3.56e-4 0.846332,-0.109955 1.21875,-0.318359 -0.07312,0.208377 -0.15881,0.399903 -0.275391,0.552734 -0.372037,0.487723 -1.017138,0.811766 -2.427734,0.765625 l -0.03125,1 c 1.589404,0.05199 2.653725,-0.373347 3.253906,-1.160156 0.600182,-0.786809 0.704671,-1.796533 0.730469,-2.828125 l -0.02539,0 c 0.03644,-0.168169 0.05542,-0.339651 0.05664,-0.511719 0,-1.380712 -1.119288,-2.5 -2.5,-2.5 z m 0,1 c 0.828427,0 1.5,0.671573 1.5,1.5 0,0.828427 -0.671573,1.5 -1.5,1.5 -0.828427,0 -1.5,-0.671573 -1.5,-1.5 0,-0.828427 0.671573,-1.5 1.5,-1.5 z"/>
 <path style="fill:#c4c4c4" d="m 6.0082857,8.4921873 0,8.0000007 1,0 0,-3.5 2.9999993,0 0,3.5 1,0 0,-8.0000007 -1,0 0,3.5000007 -2.9999993,0 0,-3.5000007 c -1,0 0,0 -1,0 z M 14.500473,11 c -1.380712,0 -2.5,1.119288 -2.5,2.5 0,1.380712 1.119288,2.5 2.5,2.5 0.426764,-3.56e-4 0.846332,-0.109955 1.21875,-0.318359 -0.07312,0.208377 -0.15881,0.399903 -0.275391,0.552734 C 15.071795,16.722098 14.426694,17.046141 13.016098,17 l -0.03125,1 c 1.589404,0.05199 2.653725,-0.373347 3.253906,-1.160156 0.600182,-0.786809 0.704671,-1.796533 0.730469,-2.828125 l -0.02539,0 c 0.03644,-0.168169 0.05542,-0.339651 0.05664,-0.511719 0,-1.380712 -1.119288,-2.5 -2.5,-2.5 z m 0,1 c 0.828427,0 1.5,0.671573 1.5,1.5 0,0.828427 -0.671573,1.5 -1.5,1.5 -0.828427,0 -1.5,-0.671573 -1.5,-1.5 0,-0.828427 0.671573,-1.5 1.5,-1.5 z"/>
</svg>
